lib/flags/kg-kyrgyzstan.svg

<svg xmlns="http://www.w3.org/2000/svg" fill="none" aria-hidden="true" viewBox="0 0 42 30"><g id="Country=KG - Kyrgyzstan, Size=sm (36x24)" filter="url(#filter0_dd_91_27274)"><g clip-path="url(#clip0_91_27274)"><g id="flag"><mask id="mask0_91_27274" width="36" height="24" x="3" y="2" maskUnits="userSpaceOnUse" style="mask-type:alpha"><rect id="mask" width="36" height="24" x="3" y="2" fill="white"/></mask><g mask="url(#mask0_91_27274)"><g id="contents"><path id="background" fill="#C51918" fill-rule="evenodd" d="M3 2V26H39V2H3Z" clip-rule="evenodd"/><mask id="mask1_91_27274" width="36" height="24" x="3" y="2" maskUnits="userSpaceOnUse" style="mask-type:alpha"><path id="background_2" fill="white" fill-rule="evenodd" d="M3 2V26H39V2H3Z" clip-rule="evenodd"/></mask><g mask="url(#mask1_91_27274)"><g id="mark"><path id="sun" fill="#FFDC17" fill-rule="evenodd" d="M20.9799 19.8668C21.1004 19.8668 21.2203 19.864 21.3393 19.8585L22.0335 21.8262L22.1942 19.7705C22.4265 19.7331 22.6546 19.6853 22.8779 19.6275L24.0681 21.4011L23.6867 19.3673C23.9017 19.2839 24.1109 19.1909 24.3135 19.0889L25.9367 20.5737L25.0327 18.6706C25.2194 18.5463 25.3985 18.4136 25.5692 18.2731L27.5384 19.3887L26.1609 17.7204C26.31 17.562 26.4499 17.3967 26.5799 17.2251L28.7871 17.9099L27.0116 16.5677C27.1153 16.3836 27.2084 16.1941 27.2903 15.9997L29.6153 16.2172L27.5375 15.2726C27.5898 15.073 27.6306 14.8695 27.6593 14.6628L29.9784 14.4016L27.7096 13.9049C27.7085 13.696 27.6951 13.4896 27.6701 13.2863L29.8568 12.5612L27.5228 12.5393C27.4674 12.3364 27.4002 12.1377 27.3219 11.9436L29.2571 10.7951L26.9825 11.2479C26.8755 11.0623 26.7577 10.8823 26.6299 10.7086L28.2116 9.19855L26.1178 10.1011C25.9654 9.94245 25.8037 9.79093 25.6335 9.64721L26.7767 7.8576L24.9777 9.15993C24.788 9.03623 24.5907 8.92111 24.3864 8.81522L25.0297 6.84455L23.6222 8.47482C23.4053 8.39309 23.1825 8.32111 22.9545 8.25952L23.0648 6.21402L22.1224 8.08516C21.8906 8.05021 21.6548 8.02571 21.4156 8.01223L20.988 6L20.5606 8.01133C20.3209 8.02432 20.0847 8.04837 19.8524 8.0829L18.9111 6.21402L19.0212 8.25522C18.792 8.31661 18.5679 8.38849 18.3498 8.47023L16.9462 6.84455L17.5872 8.80805C17.3811 8.91433 17.182 9.02999 16.9906 9.15438L15.1993 7.8576L16.3368 9.63834C16.1645 9.7832 16.0008 9.93604 15.8467 10.0962L13.7643 9.19855L15.3366 10.6996C15.2068 10.8752 15.0874 11.0572 14.9789 11.245L12.7188 10.7951L14.641 11.9358C14.5613 12.1324 14.493 12.3338 14.4369 12.5394L12.1191 12.5612L14.2903 13.2812C14.2647 13.4873 14.2512 13.6966 14.2502 13.9085L11.9976 14.4016L14.3002 14.6609C14.3293 14.8706 14.3707 15.0768 14.4239 15.2791L12.3607 16.2172L14.67 16.0012C14.7531 16.198 14.8476 16.39 14.953 16.5763L13.1889 17.9099L15.3829 17.2292C15.5146 17.4026 15.6564 17.5697 15.8075 17.7296L14.4375 19.3887L16.3971 18.2786C16.5697 18.4201 16.7506 18.5537 16.9393 18.6788L16.0393 20.5737L17.6567 19.0941C17.8608 19.1965 18.0715 19.2897 18.2882 19.3732L17.9079 21.4011L19.0957 19.6311C19.3198 19.6886 19.5488 19.7361 19.7819 19.7731L19.9425 21.8262L20.6364 19.8592C20.7502 19.8643 20.8647 19.8668 20.9799 19.8668ZM26.0424 13.9157C26.0424 16.4005 23.7577 18.4148 20.9394 18.4148C18.121 18.4148 15.8363 16.4005 15.8363 13.9157C15.8363 11.4309 18.121 9.41654 20.9394 9.41654C23.7577 9.41654 26.0424 11.4309 26.0424 13.9157ZM24.499 15.3812C24.712 14.9557 24.8303 14.4846 24.8303 13.9888C24.8303 13.5045 24.7174 13.0437 24.5136 12.6259C23.6331 12.6816 22.8866 12.8876 22.281 13.1513C23.6251 13.6739 24.2331 14.5342 24.499 15.3812ZM24.0653 16.0389C23.9553 16.1698 23.8351 16.2935 23.7056 16.409C23.6337 15.2285 23.0656 14.3282 22.0467 13.3571C23.3082 13.8943 24.0197 15.1784 24.0653 16.0389ZM23.0998 16.85C23.0285 16.892 22.9555 16.9319 22.881 16.9697C22.5782 15.6432 22.0047 14.5965 21.2065 13.7601L21.4 13.6304C21.4257 13.6131 21.4519 13.5959 21.4786 13.5787C22.5 14.6228 23.1443 15.5186 23.0998 16.85ZM20.9724 17.4181C21.4251 17.4181 21.8597 17.3488 22.2633 17.2214C21.97 15.9592 21.4592 14.7836 20.7199 13.9353C19.8363 14.8702 19.3868 15.9267 19.3703 17.1093C19.8582 17.3076 20.4008 17.4181 20.9724 17.4181ZM20.2299 13.529C20.2607 13.5504 20.29 13.5717 20.3179 13.5929C19.3769 14.5443 18.8621 15.6172 18.7744 16.8074C18.6588 16.7361 18.5478 16.6592 18.4418 16.5773C18.7964 15.3189 19.3843 14.2807 20.2299 13.529ZM17.4201 12.6491C18.3043 12.7376 19.0024 12.9287 19.5255 13.15C18.1922 13.6535 17.6671 14.4649 17.4031 15.2925C17.2171 14.8906 17.1145 14.4504 17.1145 13.9888C17.1145 13.5135 17.2234 13.0607 17.4201 12.6491ZM17.9042 16.068C17.8745 16.0334 17.8456 15.9983 17.8173 15.9628C17.884 15.0938 18.5066 13.8607 19.7643 13.3523C18.9206 14.0801 18.2895 14.9085 17.9042 16.068ZM18.1897 11.6137C18.8917 10.964 19.8789 10.5596 20.9724 10.5596C22.0489 10.5596 23.0223 10.9515 23.7221 11.5835C22.6209 11.697 21.6872 11.9424 20.929 12.3242C20.253 11.9795 19.3391 11.7464 18.1897 11.6137Z" clip-rule="evenodd"/></g></g></g></g></g></g></g><defs><filter id="filter0_dd_91_27274" width="42" height="30" x="0" y="0" color-interpolation-filters="sRGB" filterUnits="userSpaceOnUse"><feFlood flood-opacity="0" result="BackgroundImageFix"/><feColorMatrix in="SourceAlpha" result="hardAlpha" values="0 0 0 0 0 0 0 0 0 0 0 0 0 0 0 0 0 0 127 0"/><feOffset dy="1"/><feGaussianBlur stdDeviation="1"/><feColorMatrix values="0 0 0 0 0.0627451 0 0 0 0 0.0941176 0 0 0 0 0.156863 0 0 0 0.06 0"/><feBlend in2="BackgroundImageFix" result="effect1_dropShadow_91_27274"/><feColorMatrix in="SourceAlpha" result="hardAlpha" values="0 0 0 0 0 0 0 0 0 0 0 0 0 0 0 0 0 0 127 0"/><feOffset dy="1"/><feGaussianBlur stdDeviation="1.5"/><feColorMatrix values="0 0 0 0 0.0627451 0 0 0 0 0.0941176 0 0 0 0 0.156863 0 0 0 0.1 0"/><feBlend in2="effect1_dropShadow_91_27274" result="effect2_dropShadow_91_27274"/><feBlend in="SourceGraphic" in2="effect2_dropShadow_91_27274" result="shape"/></filter><clipPath id="clip0_91_27274"><rect width="36" height="24" x="3" y="2" fill="white" rx="2"/></clipPath></defs></svg>

<svg xmlns="http://www.w3.org/2000/svg" fill="none" aria-hidden="true" viewBox="0 0 42 30"><g filter="url(#a)"><g clip-path="url(#b)"><mask id="c" width="36" height="24" x="3" y="2" maskUnits="userSpaceOnUse" style="mask-type:alpha"><path fill="#fff" d="M3 2h36v24H3z"/></mask><g mask="url(#c)"><path fill="#C51918" fill-rule="evenodd" d="M3 2v24h36V2H3Z" clip-rule="evenodd"/><mask id="d" width="36" height="24" x="3" y="2" maskUnits="userSpaceOnUse" style="mask-type:alpha"><path fill="#fff" fill-rule="evenodd" d="M3 2v24h36V2H3Z" clip-rule="evenodd"/></mask><g mask="url(#d)"><path fill="#FFDC17" fill-rule="evenodd" d="M20.98 19.867c.12 0 .24-.003.36-.009l.694 1.968.16-2.056a7.46 7.46 0 0 0 .684-.142l1.19 1.773-.381-2.034a7.12 7.12 0 0 0 .627-.278l1.623 1.485-.904-1.903c.186-.125.365-.257.536-.398l1.97 1.116-1.378-1.669c.149-.158.289-.323.419-.495l2.207.685-1.775-1.342A5.54 5.54 0 0 0 27.29 16l2.325.217-2.077-.944c.052-.2.093-.403.121-.61l2.32-.261-2.27-.497a5.295 5.295 0 0 0-.039-.619l2.187-.725-2.334-.022a5.38 5.38 0 0 0-.201-.595l1.935-1.149-2.274.453a5.79 5.79 0 0 0-.353-.54l1.582-1.51-2.094.903a6.371 6.371 0 0 0-.484-.454l1.143-1.79-1.8 1.303a6.871 6.871 0 0 0-.59-.345l.643-1.97-1.408 1.63a7.271 7.271 0 0 0-.668-.215l.11-2.046-.942 1.871a7.614 7.614 0 0 0-.706-.073L20.988 6l-.427 2.011a7.62 7.62 0 0 0-.709.072l-.94-1.869.11 2.041c-.23.062-.454.133-.672.215l-1.404-1.625.641 1.963a6.888 6.888 0 0 0-.596.346l-1.792-1.296 1.138 1.78a6.357 6.357 0 0 0-.49.458L13.764 9.2l1.573 1.5c-.13.176-.25.358-.358.546l-2.26-.45 1.922 1.14a5.36 5.36 0 0 0-.204.604l-2.318.022 2.171.72a5.29 5.29 0 0 0-.04.627l-2.252.494 2.302.259c.03.21.07.416.124.618l-2.063.938 2.309-.216c.083.197.178.389.283.575l-1.764 1.334 2.194-.68c.132.173.273.34.425.5l-1.37 1.659 1.96-1.11c.172.141.353.275.541.4l-.9 1.895 1.618-1.48c.204.102.415.196.631.28l-.38 2.027 1.188-1.77c.224.058.453.105.686.142l.16 2.053.694-1.967c.114.005.229.008.344.008Zm5.062-5.951c0 2.485-2.284 4.499-5.103 4.499-2.818 0-5.103-2.014-5.103-4.5 0-2.484 2.285-4.498 5.103-4.498 2.819 0 5.103 2.014 5.103 4.499ZM24.5 15.38a3.097 3.097 0 0 0 .015-2.755 6.622 6.622 0 0 0-2.233.525c1.344.523 1.952 1.383 2.218 2.23Zm-.434.658c-.11.13-.23.255-.36.37-.071-1.18-.64-2.08-1.658-3.052 1.261.537 1.973 1.821 2.018 2.682Zm-.965.811a3.973 3.973 0 0 1-.219.12c-.303-1.327-.876-2.373-1.675-3.21l.194-.13a4.66 4.66 0 0 1 .079-.051c1.021 1.044 1.665 1.94 1.62 3.271Zm-2.128.568c.453 0 .888-.07 1.291-.197-.293-1.262-.804-2.437-1.543-3.286-.884.935-1.333 1.992-1.35 3.174.488.199 1.03.31 1.602.31Zm-.742-3.889.088.064c-.941.951-1.456 2.024-1.544 3.214a3.848 3.848 0 0 1-.332-.23c.354-1.258.942-2.296 1.788-3.048Zm-2.81-.88c.884.089 1.582.28 2.105.501-1.333.503-1.858 1.315-2.122 2.143a3.092 3.092 0 0 1 .017-2.644Zm.484 3.419a3.756 3.756 0 0 1-.087-.105c.067-.87.69-2.102 1.947-2.61-.843.727-1.474 1.556-1.86 2.715Zm.286-4.454c.702-.65 1.689-1.054 2.782-1.054 1.077 0 2.05.391 2.75 1.024-1.101.113-2.035.358-2.793.74-.676-.345-1.59-.578-2.74-.71Z" clip-rule="evenodd"/></g></g></g></g><defs><clipPath id="b"><rect width="36" height="24" x="3" y="2" fill="#fff" rx="2"/></clipPath><filter id="a" width="42" height="30" x="0" y="0" color-interpolation-filters="sRGB" filterUnits="userSpaceOnUse"><feFlood flood-opacity="0" result="BackgroundImageFix"/><feColorMatrix in="SourceAlpha" result="hardAlpha" values="0 0 0 0 0 0 0 0 0 0 0 0 0 0 0 0 0 0 127 0"/><feOffset dy="1"/><feGaussianBlur stdDeviation="1"/><feColorMatrix values="0 0 0 0 0.0627451 0 0 0 0 0.0941176 0 0 0 0 0.156863 0 0 0 0.06 0"/><feBlend in2="BackgroundImageFix" result="effect1_dropShadow_91_27274"/><feColorMatrix in="SourceAlpha" result="hardAlpha" values="0 0 0 0 0 0 0 0 0 0 0 0 0 0 0 0 0 0 127 0"/><feOffset dy="1"/><feGaussianBlur stdDeviation="1.5"/><feColorMatrix values="0 0 0 0 0.0627451 0 0 0 0 0.0941176 0 0 0 0 0.156863 0 0 0 0.1 0"/><feBlend in2="effect1_dropShadow_91_27274" result="effect2_dropShadow_91_27274"/><feBlend in="SourceGraphic" in2="effect2_dropShadow_91_27274" result="shape"/></filter></defs></svg>
